X: 435
T: The Good Ship Planet
N:"Cheerfully"
N:Irish title: an lung brea.d plainead
B:O'Neill's 435
Z:Transcribed by henrik.norbeck@mailbox.swipnet.se
M:6/8
L:1/8
K:G
(E/F/) | GAF GEE/F/ | GAB d>Bd | efe dBA | (G>FG/A/) B2 (E/F/) |
GAF GEE/>F/ | G>AB dB>d | e>fe dBG | {AB}AGG G2 ||
(G/A/) | B>cB gag | fed e(dB/A/) | .B>(AG/A/) (GF)(E/F/) | E>(FG/A/) B2 (E/F/) |
GAF GE(E/>F/) | G>AB dB>d | e>fe dBG | TAGG G2 ||


